X:1     
B:Broadwood, L, 1893, English County Songs, London, Leadenhall Press
S:Mr Huttley
Z: Lucy Broadwood
T:Bristol City
F: http://www.folkinfo.org/songs
M:3/4     %Meter
L:1/8     %
K:D
A3/2G/ |E2-E3/2F/ E3/2G/ |(F3/2G/) A2 A2 |d2 (cB) AG |(G2 F) z 
w:As I walked thro' Brist-ol Ci--ty I heard a_ fair maid sing,_
A3/2F/ |D2-D3/2F/ (E3/2G/) |(F3/2G/) A2 (c3/2d/) |(e3/2f/) (c3/2A/) (B3/2^G/) |A3 z
w:  In be-half* of her_ sail--or, her_ coun-try and_ her_ king;
A2 |d3 B cd |(ec) A2 FD |(dB) (BG) (FE) | (D2 {ED}C) z
w:And oh, she sang so sweet--ly, and so sweet--ly_ sang_ she_ 
 F3/2G/ |AF D2 dc |dB G2 F3/2G/ |(A3/2B/) D2 C2 | D4 z2 |]
 F3/2G/ |AF D2 dc |dB G2 F3/2G/ |(A3/2B/) D2 C2 | D4 z2 |]
w:"Oh! of all the sorts of a Col--in, why a sail--or for me!"